X: 11962
T: End Of Lent, The
R: jig
M: 6/8
K: Eminor
D|EFE EDB,|EDE GAB|edB BAG|ABA AGF|
EFE EDB,|EDE GAB|edB AGA|BGF G3:|
Bc|ded dBG|e3 edB|ded dBG|ABA AGA|
ded dBG|e3 edB|dBA AGA|BGF GBc|
ded dBG|e3 efg|ded dBG|A3 AGF|
EFE EDB,|EDE GAB|edB AGA|BGF G3||

